svgs/saikou.svg

<svg xmlns="http://www.w3.org/2000/svg" viewBox="0 0 192 192"><path d="M166.905 16.5H25.095a8.599 8.599 0 0 0-6.078 2.517 8.599 8.599 0 0 0-2.517 6.078v141.81c0 2.279.906 4.467 2.517 6.078a8.599 8.599 0 0 0 6.078 2.517h141.81a8.599 8.599 0 0 0 6.078-2.517 8.599 8.599 0 0 0 2.517-6.078V25.095a8.599 8.599 0 0 0-2.517-6.078 8.599 8.599 0 0 0-6.078-2.517Z" fill="none" stroke="#000" stroke-width="12" stroke-linecap="round" stroke-linejoin="round"/><path d="M71.408 175.5s60.896-34.735 61.43-57.068c.296-12.38-4.422-18.07-12.907-20.643m-47.695-4.833C63.357 89.394 60.289 82.35 61.22 71.277c1.452-17.244 52.114-44.107 60.171-54.777" fill="none" stroke="#000" stroke-width="8"/><path d="m118.526 99.223-14.502 8.373-25.667 14.818a3.719 3.719 0 0 1-4.712-.831 3.722 3.722 0 0 1-.87-2.392V72.809a3.722 3.722 0 0 1 5.582-3.223l14.502 8.372 25.667 14.819a3.722 3.722 0 0 1 0 6.446Z" fill="none" stroke="#000" stroke-width="8" stroke-linecap="round" stroke-linejoin="round"/></svg>

<svg
    xmlns="http://www.w3.org/2000/svg"
    viewBox="0 0 192 192"
    id="vector">
    <path
        id="path"
        d="M 166.905 16.5 L 25.095 16.5 C 22.816 16.5 20.628 17.406 19.017 19.017 C 17.406 20.628 16.5 22.816 16.5 25.095 L 16.5 166.905 C 16.5 169.184 17.406 171.372 19.017 172.983 C 20.628 174.594 22.816 175.5 25.095 175.5 L 166.905 175.5 C 169.184 175.5 171.372 174.594 172.983 172.983 C 174.594 171.372 175.5 169.184 175.5 166.905 L 175.5 25.095 C 175.5 22.816 174.594 20.628 172.983 19.017 C 171.372 17.406 169.184 16.5 166.905 16.5 Z"
        fill="none"
        stroke="#000000"
        stroke-width="12"
        stroke-linecap="round"
        stroke-linejoin="round"/>
    <path
        id="path_1"
        d="M 71.408 175.5 C 71.408 175.5 132.304 140.765 132.838 118.432 C 133.134 106.052 128.416 100.362 119.931 97.789 M 72.236 92.956 C 63.357 89.394 60.289 82.35 61.22 71.277 C 62.672 54.033 113.334 27.17 121.391 16.5"
        fill="none"
        stroke="#000000"
        stroke-width="8"/>
    <path
        id="path_2"
        d="M 118.526 99.223 L 104.024 107.596 L 78.357 122.414 C 77.599 122.852 76.711 123.008 75.85 122.856 C 74.989 122.704 74.208 122.253 73.645 121.583 C 73.083 120.913 72.775 120.066 72.775 119.191 L 72.775 72.809 C 72.775 71.934 73.083 71.087 73.645 70.416 C 74.207 69.746 74.988 69.295 75.85 69.143 C 76.711 68.992 77.6 69.148 78.357 69.586 L 92.859 77.958 L 118.526 92.777 C 119.283 93.214 119.863 93.905 120.162 94.727 C 120.461 95.549 120.461 96.451 120.162 97.273 C 119.863 98.095 119.283 98.786 118.526 99.223 Z"
        fill="none"
        stroke="#000000"
        stroke-width="8"
        stroke-linecap="round"
        stroke-linejoin="round"/>
</svg>
